astro/public/img/icons/dt-url-encoder-decoder.svg

<?xml version="1.0" encoding="UTF-8"?>
<svg width="70px" height="70px" viewBox="0 0 70 70" version="1.1" xmlns="http://www.w3.org/2000/svg" xmlns:xlink="http://www.w3.org/1999/xlink">
    <title>dt-url-encoder-decoder</title>
    <defs>
        <linearGradient x1="0%" y1="1.98%" x2="100%" y2="98.02%" id="linearGradient-1">
            <stop stop-color="#A4AEBE" offset="0%"></stop>
            <stop stop-color="#2D53F5" offset="100%"></stop>
        </linearGradient>
    </defs>
    <g id="dt-url-encoder-decoder" stroke="none" stroke-width="1" fill="none" fill-rule="evenodd">
        <g id="005-link" transform="translate(10.000000, 10.000000)" fill="url(#linearGradient-1)" fill-rule="nonzero">
            <path d="M13.0739962,19.2897445 C14.0679758,20.2684901 14.0679504,21.8555368 13.0739453,22.8342824 L7.77629261,28.0508336 C4.19501861,31.5775762 4.19501861,37.5786277 7.77629261,41.1051196 L8.01707534,41.3422241 C11.5984002,44.8684654 17.6926212,44.868716 21.2737425,41.3422241 L26.5714716,36.1256729 C27.5654003,35.1466767 29.1770665,35.1466767 30.1709952,36.1254223 C31.1649239,37.1044185 31.1649239,38.6912146 30.1709952,39.6702108 L24.8732661,44.8870127 C19.3040838,50.3709958 9.98678495,50.3709958 4.41752628,44.8870127 L4.17674356,44.6496575 C-1.39210786,39.1654237 -1.39238784,29.9905295 4.17674356,24.5062957 L9.4744217,19.2896944 C10.4684268,18.3108987 12.0799912,18.3109237 13.0739962,19.2897445 Z M29.9266491,15.9840156 C30.9119239,14.9965728 32.5233355,14.982537 33.5261727,15.9526355 C34.5287553,16.9227592 34.5430088,18.5096555 33.5579886,19.4970231 L20.0728832,33.0132368 C19.0877612,34.0007548 17.4762477,34.0147906 16.4734869,33.0445667 C15.4707515,32.0745935 15.456498,30.4875468 16.4416455,29.5002794 Z M45.5821078,4.11299673 L45.8228906,4.35007624 C51.3922001,9.83425986 51.3924547,19.0093546 45.8231451,24.4935131 L40.525416,29.710315 C39.5314873,30.6890606 37.9198211,30.6890606 36.9258924,29.710315 C35.9319637,28.7315694 35.9319637,27.1445227 36.9258924,26.1657771 L42.2236215,20.9489753 C45.8048191,17.4224332 45.8048191,11.421507 42.2236215,7.8949149 L41.9828388,7.65783539 C38.4016411,4.13126832 32.3072419,4.131143 28.7260443,7.65771007 L23.4283152,12.8744869 C22.4343865,13.8533077 20.8227203,13.8533077 19.8288171,12.8744869 C18.8348375,11.8956911 18.834812,10.3087447 19.8288171,9.3299239 L25.1265207,4.11314711 C30.6955757,-1.37101144 40.0127983,-1.37103651 45.5821078,4.11299673 Z" id="Combined-Shape"></path>
        </g>
    </g>
</svg>

<svg xmlns="http://www.w3.org/2000/svg" width="70" height="70"><defs><linearGradient id="a" x1="0%" x2="100%" y1="1.98%" y2="98.02%"><stop offset="0%" stop-color="#A4AEBE"/><stop offset="100%" stop-color="#2D53F5"/></linearGradient></defs><path fill="url(#a)" d="M13.074 19.29a2.48 2.48 0 0 1 0 3.544l-5.298 5.217c-3.581 3.527-3.581 9.528 0 13.054l.241.237c3.581 3.526 9.676 3.527 13.257 0l5.297-5.216a2.573 2.573 0 0 1 3.6 0 2.48 2.48 0 0 1 0 3.544l-5.298 5.217c-5.569 5.484-14.886 5.484-20.455 0l-.241-.237c-5.57-5.485-5.57-14.66 0-20.144l5.297-5.216a2.573 2.573 0 0 1 3.6 0Zm16.853-3.306a2.573 2.573 0 0 1 3.6-.031 2.48 2.48 0 0 1 .031 3.544L20.073 33.013a2.573 2.573 0 0 1-3.6.032 2.48 2.48 0 0 1-.031-3.545ZM45.582 4.113l.24.237c5.57 5.484 5.57 14.66.001 20.144l-5.298 5.216a2.573 2.573 0 0 1-3.6 0 2.48 2.48 0 0 1 0-3.544l5.299-5.217c3.58-3.527 3.58-9.527 0-13.054l-.241-.237c-3.581-3.527-9.676-3.527-13.257 0l-5.298 5.216a2.573 2.573 0 0 1-3.6 0 2.48 2.48 0 0 1 0-3.544l5.299-5.217c5.569-5.484 14.886-5.484 20.455 0Z" transform="translate(10 10)"/></svg>
